X: 14804
T: Gankino
R: barndance
M: 4/4
K: Gmajor
|:D2AB B2B B2B2|dfed cBc [1,2,3,4 dcB2:|
|:GDGA B2A GFE2|F2G2 A2G [1,3 FGGD:|2 FG2D:|4 FG3||
|:dee2 efe d2dB|dBcA B2[1,3 c d2dB:|2 G BGBG:|4 G B2B2||
|:dBcA B2c d2dB|dBcA B2[1,3 G BGBG:|2 ,4 G B2B2:|
|:de^c2 _BAG A2AE|de^c2 _BAG A2AE|de^c2 de^c de^c2|de^c2 _BAG A2AE:|
|:ABc2 cAc B2BG|dBc2 cAc B2BG|ABc2 cAc B2BG|AGFG A2d A2A2:|

